X: 13001
T: Fifty In The Ashtray
R: reel
M: 4/4
K: Dmajor
|:FA~A2 BcdA|FA~A2 FEED|FA~A2 Bcdf|afeg fdd2:|
dfaf bfaf|dfgf ecA2|dfaf bfaf|afeg fdd2|
dfaf bfaf|dfgf ecA2|B/c/d ce dfeg|f/g/a ge fd d2||
|:eA~A2 edBd|eABA GAB/c/d|eA B/=c/d edBd|dBGB A4:|
e2 e/f/g afge|dBgB aBgB|e2 ef afge|dBGB A2 B/c/d|
e2 e/f/g afge|dBgB aBgB|e2 ef afge|dBGB A4||

